Adwaita++/apps/16/com.github.artemanufrij.hashit.svg

<svg height="16" width="16" xmlns="http://www.w3.org/2000/svg">
  <path d="m11.638694 5.8929331-.891566 4.2141339h2.971883v1.233404h-3.234781l-1.005867 4.659529h-1.2573352l.983008-4.659529h-4.1492061l-.9601467 4.659529h-1.257336l.960147-4.659529h-2.297494v-1.233404h2.571822l.891564-4.2141339h-2.880439v-1.2334045h3.1319072l1.0172985-4.6595286h1.2573353l-1.0058691 4.6595286h4.1492061l1.005869-4.6595286h1.257336l-1.005869 4.6595286h2.411797v1.2334045zm-5.3836804 0-.9144272 4.2141339h4.1377766l.891564-4.2141339z" fill="#444"/>
</svg>

<svg xmlns="http://www.w3.org/2000/svg" width="16" height="16" version="1.1">
 <path fill="#444" d="m 11.638694,5.8929331 -0.891566,4.2141339 h 2.971883 v 1.233404 H 10.48423 L 9.478363,16 H 8.2210278 l 0.983008,-4.659529 H 5.0548297 L 4.094683,16 H 2.837347 L 3.797494,11.340471 H 1.5 V 10.107067 H 4.071822 L 4.963386,5.8929331 H 2.082947 V 4.6595286 H 5.2148542 L 6.2321527,0 H 7.489488 L 6.4836189,4.6595286 H 10.632825 L 11.638694,0 h 1.257336 l -1.005869,4.6595286 h 2.411797 v 1.2334045 z m -5.3836804,0 -0.9144272,4.2141339 H 9.478363 l 0.891564,-4.2141339 z"/>
</svg>
